packages/astro-components-stencil/src/icons/sms-failed.svg

<svg xmlns="http://www.w3.org/2000/svg" viewBox="0 0 24 24"><g xmlns="http://www.w3.org/2000/svg" id="sms-failed" fill-rule="nonzero">
            <path d="M20 2H4c-1.1 0-2 .9-2 2v18l4-4h14c1.1 0 2-.9 2-2V4c0-1.1-.9-2-2-2zm-7 12h-2v-2h2v2zm-1-4c-.55 0-1-.45-1-1V7c0-.55.45-1 1-1s1 .45 1 1v2c0 .55-.45 1-1 1z"/>
        </g></svg>

<svg width="24" height="24" viewBox="0 0 24 24" fill="none" xmlns="http://www.w3.org/2000/svg">
<path fill-rule="evenodd" clip-rule="evenodd" d="M20 2H4C2.9 2 2 2.9 2 4V22L6 18H20C21.1 18 22 17.1 22 16V4C22 2.9 21.1 2 20 2ZM13 12V14H11V12H13ZM11 9C11 9.55 11.45 10 12 10C12.55 10 13 9.55 13 9V7C13 6.45 12.55 6 12 6C11.45 6 11 6.45 11 7V9Z" fill="black"/>
</svg>
